img/vector-indesign.svg

<svg width="60" height="60" viewBox="0 0 60 60" fill="none" xmlns="http://www.w3.org/2000/svg">
<path fill-rule="evenodd" clip-rule="evenodd" d="M10.9091 0C8.01582 0 5.24105 1.14935 3.1952 3.1952C1.14935 5.24105 0 8.01582 0 10.9091V49.0909C0 51.9842 1.14935 54.7589 3.1952 56.8048C5.24105 58.8507 8.01582 60 10.9091 60H49.0909C51.9842 60 54.7589 58.8507 56.8048 56.8048C58.8507 54.7589 60 51.9842 60 49.0909V10.9091C60 8.01582 58.8507 5.24105 56.8048 3.1952C54.7589 1.14935 51.9842 0 49.0909 0H10.9091ZM38.1818 15H43.6364V41.7C42.0955 42.2345 38.3073 43.3091 35.4873 43.3091C31.9636 43.3091 25.7182 41.4955 25.7182 33.0382C25.7182 25.71 31.8191 22.9473 38.1818 22.9473V15ZM38.1818 27.6109V38.52C35.9182 38.52 31.3636 37.9391 31.3636 33.0655C31.3636 28.1918 35.9182 27.6109 38.1818 27.6109ZM21.8182 17.7273H16.3636V42.2727H21.8182V17.7273Z" fill="#F7F1E8"/>
</svg>

<?xml version="1.0" encoding="utf-8"?>
<!-- Generator: Adobe Illustrator 23.0.1, SVG Export Plug-In . SVG Version: 6.00 Build 0)  -->
<svg version="1.1" id="Capa_1" xmlns="http://www.w3.org/2000/svg" xmlns:xlink="http://www.w3.org/1999/xlink" x="0px" y="0px"
	 viewBox="0 0 60 60" style="enable-background:new 0 0 60 60;" xml:space="preserve">
<style type="text/css">
	.st0{fill:#1A1AA2;}
	.st1{fill-rule:evenodd;clip-rule:evenodd;fill:#F7F1E8;}
</style>
<rect x="12" y="13.8" class="st0" width="37.9" height="30.7"/>
<path class="st1" d="M10.9,0C8,0,5.2,1.1,3.2,3.2S0,8,0,10.9v38.2c0,2.9,1.1,5.7,3.2,7.7c2,2,4.8,3.2,7.7,3.2h38.2
	c2.9,0,5.7-1.1,7.7-3.2c2-2,3.2-4.8,3.2-7.7V10.9c0-2.9-1.1-5.7-3.2-7.7c-2-2-4.8-3.2-7.7-3.2H10.9z M38.2,15h5.5v26.7
	c-1.5,0.5-5.3,1.6-8.1,1.6c-3.5,0-9.8-1.8-9.8-10.3c0-7.3,6.1-10.1,12.5-10.1V15z M38.2,27.6v10.9c-2.3,0-6.8-0.6-6.8-5.5
	C31.4,28.2,35.9,27.6,38.2,27.6z M21.8,17.7h-5.5v24.5h5.5V17.7z"/>
</svg>
